X: 103
T: Ale is Dear
T: Maighstir Ord
N: page 35
N: hexatonic
R: Reel
N: Fiddlers  Five  CD 7, as trad, follows Spootiskerry, Scots Guards #341, Logan's p.33
M: 4/4
L: 1/8
K: BDor
|: "Bm"{e}~f2ef B2fe | "A"faea cAec | "Bm"~f2ef B2fe | "F#m"faec "Bm"B4 :|
|| "Bm"{A}~B2Bc d2cB | "A"A2AB cABc | "G"{A}~B2Bc d2cB | "F#m"f2{a}ec "Bm"B4 ||
|| "Bm"{A}~B2Bc d2cB | "A"A2AB cABc | "D"~d2 fd "A"~c2 ec | "F#m"f2{a}ec "Bm"B4 |]
